X: 2443
T: Ballinasloe Fair
R: reel
M: 4/4
K: Aminor
cB|:AGAB cBcA|GECE GFGB|AGAB cdea|1 gedB cedB:|2 gede ddef||
gc~c2 gcac|gc~c2 cdef|gc~c2 agaa|gede cdef|
gc~c2 gcac|gc~c2 BcdB|AGAB cdea|gedB cedB||

